svg/fluentui-system-icons/ic_fluent_closed_caption_off_24_filled.svg

<svg width="24" height="24" viewBox="0 0 24 24" fill="none" xmlns="http://www.w3.org/2000/svg">
<path d="M3.28034 2.21967C2.98745 1.92678 2.51257 1.92677 2.21968 2.21966C1.92678 2.51255 1.92677 2.98742 2.21966 3.28032L3.4698 4.53047C2.5846 5.11109 2 6.11226 2 7.24997V16.7545C2 18.5494 3.45507 20.0045 5.25 20.0045H18.75C18.8132 20.0045 18.8759 20.0027 18.9382 19.9991L20.7194 21.7803C21.0123 22.0732 21.4872 22.0732 21.7801 21.7803C22.073 21.4874 22.073 21.0126 21.7801 20.7197L3.28034 2.21967ZM8.57296 9.63369C7.69021 9.7809 7 10.6301 7 11.9999C7 14.0045 8.48411 14.8961 9.8792 14.1026C10.2392 13.8978 10.6971 14.0237 10.9019 14.3837C11.1067 14.7438 10.9809 15.2017 10.6208 15.4065C8.21539 16.7746 5.5 15.1432 5.5 11.9999C5.5 10.2995 6.29288 9.04205 7.40186 8.46258L8.57296 9.63369ZM17.3784 9.90141C16.1366 9.19303 14.8292 9.81615 14.5531 11.3712L21.5638 18.382C21.8412 17.9034 22 17.3475 22 16.7545V7.24997C22 5.45506 20.5449 3.99999 18.75 3.99999H7.18195L13.3557 10.1739C14.1688 8.28645 16.2384 7.52423 18.1216 8.5985C18.4814 8.80374 18.6067 9.26178 18.4015 9.62157C18.1962 9.98136 17.7382 10.1066 17.3784 9.90141Z" fill="#212121"/>
</svg>

<svg xmlns="http://www.w3.org/2000/svg" width="24" height="24"><path d="M3.28 2.22a.75.75 0 0 0-1.06 1.06l1.25 1.25A3.247 3.247 0 0 0 2 7.25v9.505a3.25 3.25 0 0 0 3.25 3.25h13.5c.063 0 .126-.002.188-.006l1.781 1.781a.75.75 0 0 0 1.061-1.06L3.28 2.22Zm5.293 7.414C7.69 9.78 7 10.63 7 12c0 2.005 1.484 2.896 2.88 2.103a.75.75 0 0 1 .74 1.303C8.216 16.776 5.5 15.143 5.5 12c0-1.7.793-2.958 1.902-3.537l1.171 1.17Zm8.805.267c-1.241-.708-2.549-.085-2.825 1.47l7.01 7.011A3.235 3.235 0 0 0 22 16.754V7.25A3.25 3.25 0 0 0 18.75 4H7.182l6.174 6.174c.813-1.888 2.882-2.65 4.766-1.575a.75.75 0 0 1-.744 1.302Z"/></svg>
